img/icon/teacher-2.svg

<svg width="90" height="90" viewBox="0 0 90 90" fill="none" xmlns="http://www.w3.org/2000/svg">
<circle cx="45" cy="45" r="45" fill="white"/>
<mask id="mask0" mask-type="alpha" maskUnits="userSpaceOnUse" x="0" y="0" width="90" height="90">
<circle cx="45" cy="45" r="45" fill="#C4C4C4"/>
</mask>
<g mask="url(#mask0)">
<path d="M65.6377 21.5136C65.6377 27.1216 61.0911 31.6682 55.4831 31.6682C49.8745 31.6682 45.3286 27.1216 45.3286 21.5136C45.3286 15.9056 49.8745 11.3591 55.4831 11.3591C61.0911 11.3591 65.6377 15.9056 65.6377 21.5136Z" fill="#3C3B41"/>
<path d="M67.4229 83.6286V93.1359C67.4229 93.816 66.8694 94.3689 66.1892 94.3689H28.1239C27.4437 94.3689 26.8902 93.816 26.8902 93.1359V83.6286C26.8902 78.8109 30.0555 74.5646 34.6743 73.1896L36.8636 72.538C37.9732 72.2086 38.8909 71.4886 39.4786 70.5544C39.7313 70.1567 39.9219 69.7204 40.0435 69.2593C40.1474 68.8749 40.2006 68.4721 40.2006 68.0611V63.6291L53.0296 61.4721V67.7387C53.0296 68.93 53.4824 70.0414 54.2462 70.88C54.806 71.4949 55.5331 71.9648 56.3684 72.2156L59.6408 73.1896C64.2595 74.5652 67.4229 78.8109 67.4229 83.6286Z" fill="#FFDBA9"/>
<path d="M59.6408 73.1896L56.3685 72.2156C55.5331 71.9648 54.8061 71.4949 54.2463 70.88C53.4825 70.0414 53.0297 68.93 53.0297 67.7387V61.4721L40.2006 63.6291V66.1668L48.2798 64.8084V71.075C48.2798 72.2663 48.7326 73.3777 49.4964 74.2163C50.0563 74.8312 50.7833 75.3011 51.6186 75.5519L54.8903 76.5259C59.5097 77.9015 62.6731 82.1472 62.6731 86.9649V94.3689H66.1899C66.8701 94.3689 67.423 93.816 67.423 93.1359V83.6286C67.423 78.8109 64.2596 74.5652 59.6408 73.1896Z" fill="#FFC473"/>
<path d="M53.0296 61.4721V67.3524C50.7757 68.9084 48.0429 69.8173 45.0986 69.8173H43.9675C42.6053 69.8173 41.2886 69.6235 40.0435 69.2593C40.1474 68.8749 40.2006 68.4721 40.2006 68.0611V63.6291L53.0296 61.4721Z" fill="#FFC473"/>
<path d="M59.0923 26.6042V51.4789C59.0923 59.2072 52.8276 65.4726 45.0986 65.4726H43.9675C36.2405 65.4726 29.9751 59.2079 29.9751 51.4789V26.6042H59.0923Z" fill="#FFDBA9"/>
<path d="M59.6098 48.7195H59.0918V39.4307H59.6098C62.1748 39.4307 64.2539 41.5105 64.2539 44.0748C64.2539 46.6397 62.1748 48.7195 59.6098 48.7195Z" fill="#FFC473"/>
<path d="M37.3925 42.1932C37.3925 42.9925 36.7446 43.6404 35.9453 43.6404C35.1461 43.6404 34.4988 42.9925 34.4988 42.1932C34.4988 41.394 35.1461 40.7461 35.9453 40.7461C36.7446 40.7461 37.3925 41.394 37.3925 42.1932Z" fill="#57555C"/>
<path d="M48.9694 42.1932C48.9694 42.9925 48.3216 43.6404 47.5223 43.6404C46.7231 43.6404 46.0752 42.9925 46.0752 42.1932C46.0752 41.394 46.7231 40.7461 47.5223 40.7461C48.3216 40.7461 48.9694 41.394 48.9694 42.1932Z" fill="#57555C"/>
<path d="M41.3886 57.7497C40.0758 57.7497 39.0295 57.3837 38.5229 57.1658C37.887 56.8922 37.5938 56.1544 37.8674 55.5192C38.141 54.8827 38.8788 54.5901 39.5146 54.8637C40.0245 55.0828 41.3741 55.5331 42.8902 54.9783C44.0492 54.5534 44.7401 53.7389 45.0492 53.2918C45.4418 52.7218 46.2227 52.5787 46.7927 52.972C47.362 53.3653 47.5052 54.1455 47.1119 54.7155C46.6344 55.4077 45.5628 56.668 43.7522 57.3317C42.9143 57.6389 42.1112 57.7497 41.3886 57.7497Z" fill="#C06100"/>
<path d="M38.7294 47.2921H30.1543C29.1372 47.2921 28.3094 46.4643 28.3094 45.4466V39.444C28.3094 38.4263 29.1372 37.5992 30.1543 37.5992H38.7294C39.7465 37.5992 40.5742 38.4263 40.5742 39.444V45.4466C40.5742 46.4643 39.7465 47.2921 38.7294 47.2921ZM30.8161 44.7854H38.0675V40.1058H30.8161V44.7854Z" fill="#7047F0"/>
<path d="M53.6254 47.2926H44.4785C43.4614 47.2926 42.6343 46.4649 42.6343 45.4471V39.4446C42.6343 38.4268 43.4614 37.5997 44.4785 37.5997H53.6254C54.6425 37.5997 55.4703 38.4268 55.4703 39.4446V45.4471C55.4703 46.4649 54.6425 47.2926 53.6254 47.2926ZM45.1403 44.7859H52.9636V40.1064H45.1403V44.7859Z" fill="#7047F0"/>
<path d="M43.8868 42.2145H39.3206C38.6284 42.2145 38.0673 41.6534 38.0673 40.9612C38.0673 40.2683 38.6284 39.7078 39.3206 39.7078H43.8868C44.579 39.7078 45.1401 40.2683 45.1401 40.9612C45.1401 41.6534 44.579 42.2145 43.8868 42.2145Z" fill="#7047F0"/>
<path d="M59.0922 37.5989V40.1055H53.5862C52.8927 40.1055 52.3329 39.5444 52.3329 38.8522C52.3329 38.1606 52.8927 37.5989 53.5862 37.5989H59.0922Z" fill="#7047F0"/>
<path d="M60.5008 32.1792C60.5274 34.0361 60.2405 35.822 59.6889 37.4864C59.3298 38.5712 57.7307 38.3287 57.7054 37.1855C57.7054 37.1324 57.7035 37.0792 57.7022 37.0253C57.5015 31.5693 53.0879 27.1209 47.6338 26.8834C42.8491 26.6744 38.7281 29.6573 37.2247 33.8822C37.2044 33.9335 37.1879 33.9854 37.1696 34.0373C36.0733 37.1254 33.673 39.5972 30.6319 40.7904C29.3538 41.2932 27.958 41.5674 26.5008 41.5674C25.7509 41.5674 25.0188 41.4953 24.3101 41.3553C26.1518 39.7859 27.5407 37.6453 28.1068 35.202C28.217 34.7277 28.2956 34.2394 28.3412 33.7429C28.3044 33.3071 28.2861 32.8638 28.2861 32.4161C28.2861 32.1051 28.2943 31.7948 28.3139 31.4889V31.4838C28.3595 30.7086 28.4577 29.948 28.6065 29.2058C29.2468 26.0361 30.8193 23.202 33.0264 21.0044C36.0144 18.0278 40.1639 16.2184 44.7326 16.3122C53.3609 16.4895 60.3773 23.5497 60.5008 32.1792Z" fill="#57555C"/>
<path d="M38.0517 25.941C36.9187 26.1013 33.0549 26.8821 30.901 30.2526C30.6122 30.7054 30.3513 31.3115 30.0739 31.9537C29.5843 33.0949 29.0397 34.3616 28.1068 35.202C28.217 34.7276 28.2962 34.2393 28.3411 33.7435C28.3044 33.3071 28.286 32.8644 28.286 32.4167C28.286 32.1057 28.2943 31.7947 28.3145 31.4889V31.4838C28.3595 30.7086 28.4577 29.948 28.6065 29.2064C28.6654 29.1025 28.7256 29.0006 28.7889 28.9018C31.5197 24.6288 36.3025 23.6567 37.7028 23.4591C38.3874 23.3622 39.0213 23.8403 39.1182 24.5256C39.2145 25.2127 38.737 25.846 38.0517 25.941Z" fill="#3C3B41"/>
<path d="M59.6408 73.1902L56.6085 72.2865V94.3689H66.1899C66.87 94.3689 67.4229 93.816 67.4229 93.1358V83.6291C67.4229 78.8115 64.2583 74.5658 59.6408 73.1902Z" fill="#007AFF"/>
<path d="M59.6408 73.19L57.5825 72.5763L56.6085 72.2869V77.2008C60.2753 79.0121 62.6724 82.7714 62.6724 86.9646V94.3686H66.1899C66.3596 94.3686 66.5217 94.3338 66.6693 94.2718C67.1113 94.0843 67.4223 93.6454 67.4223 93.1356V83.6283C67.4223 82.6004 67.2773 81.5985 67.0056 80.6447C66.0043 77.1298 63.2728 74.2717 59.6408 73.19Z" fill="#0070EB"/>
<path d="M36.255 72.7191L34.6736 73.1903C30.0561 74.5659 26.8902 78.8116 26.8902 83.6292V93.1359C26.8902 93.8161 27.4431 94.3683 28.1245 94.3683H36.2556V72.7191H36.255Z" fill="#007DFF"/>
<path d="M36.255 81.2569H56.6084V94.369H36.255V81.2569Z" fill="#F2F2F2"/>
<circle cx="45" cy="45" r="44.5" stroke="#F2F2F2"/>
</g>
</svg>

<svg width="90" height="90" fill="none" xmlns="http://www.w3.org/2000/svg"><circle cx="45" cy="45" r="45" fill="#fff"/><mask id="a" maskUnits="userSpaceOnUse" x="0" y="0" width="90" height="90"><circle cx="45" cy="45" r="45" fill="#C4C4C4"/></mask><g mask="url(#a)"><path d="M65.638 21.514c0 5.608-4.547 10.154-10.155 10.154S45.33 27.122 45.33 21.514s4.545-10.155 10.154-10.155c5.608 0 10.155 4.547 10.155 10.155z" fill="#3C3B41"/><path d="M67.423 83.629v9.507c0 .68-.554 1.233-1.234 1.233H28.124c-.68 0-1.234-.553-1.234-1.233v-9.507c0-4.818 3.165-9.064 7.784-10.44l2.19-.651a4.653 4.653 0 0 0 2.615-1.984 4.6 4.6 0 0 0 .565-1.295c.103-.384.157-.787.157-1.198V63.63l12.829-2.157v6.267c0 1.191.452 2.302 1.216 3.141a4.692 4.692 0 0 0 2.122 1.336l3.273.974a10.89 10.89 0 0 1 7.782 10.439z" fill="#FFDBA9"/><path d="M59.64 73.19l-3.272-.974a4.691 4.691 0 0 1-2.122-1.336 4.662 4.662 0 0 1-1.216-3.141v-6.267L40.2 63.63v2.538l8.08-1.359v6.267c0 1.191.453 2.303 1.216 3.141a4.693 4.693 0 0 0 2.123 1.336l3.271.974a10.89 10.89 0 0 1 7.783 10.439v7.404h3.517c.68 0 1.233-.553 1.233-1.233V83.63a10.89 10.89 0 0 0-7.782-10.44z" fill="#FFC473"/><path d="M53.03 61.472v5.88a13.911 13.911 0 0 1-7.931 2.465h-1.131a13.93 13.93 0 0 1-3.925-.558c.104-.384.158-.787.158-1.198V63.63l12.829-2.157z" fill="#FFC473"/><path d="M59.092 26.604V51.48c0 7.728-6.264 13.994-13.993 13.994h-1.131c-7.728 0-13.993-6.265-13.993-13.994V26.604h29.117z" fill="#FFDBA9"/><path d="M59.61 48.72h-.518v-9.29h.518a4.644 4.644 0 0 1 0 9.29z" fill="#FFC473"/><path d="M37.392 42.193a1.447 1.447 0 1 1-2.894 0 1.447 1.447 0 0 1 2.895 0zm11.578 0a1.447 1.447 0 1 1-2.895 0 1.447 1.447 0 0 1 2.894 0z" fill="#57555C"/><path d="M41.389 57.75a7.41 7.41 0 0 1-2.866-.584 1.253 1.253 0 1 1 .992-2.302c.51.219 1.86.67 3.375.114 1.16-.425 1.85-1.24 2.16-1.686a1.253 1.253 0 1 1 2.062 1.423c-.478.693-1.55 1.953-3.36 2.617a6.835 6.835 0 0 1-2.363.418z" fill="#C06100"/><path d="M38.73 47.292h-8.576a1.847 1.847 0 0 1-1.845-1.845v-6.003c0-1.018.828-1.845 1.845-1.845h8.575c1.017 0 1.845.827 1.845 1.845v6.003a1.847 1.847 0 0 1-1.845 1.845zm-7.914-2.507h7.252v-4.68h-7.252v4.68zm22.809 2.508h-9.147a1.847 1.847 0 0 1-1.844-1.846v-6.002c0-1.018.827-1.845 1.844-1.845h9.147c1.017 0 1.845.827 1.845 1.845v6.002a1.847 1.847 0 0 1-1.845 1.846zm-8.485-2.507h7.824v-4.68H45.14v4.68z" fill="#7047F0"/><path d="M43.887 42.215H39.32a1.253 1.253 0 1 1 0-2.507h4.566a1.253 1.253 0 1 1 0 2.507zm15.205-4.616v2.507h-5.506a1.252 1.252 0 1 1 0-2.507h5.506z" fill="#7047F0"/><path d="M60.5 32.18a16.106 16.106 0 0 1-.811 5.306c-.36 1.085-1.958.843-1.984-.3 0-.054-.002-.107-.003-.16-.2-5.457-4.614-9.905-10.068-10.143a10.549 10.549 0 0 0-10.41 7c-.02.05-.036.102-.054.154a11.355 11.355 0 0 1-6.538 6.753 11.268 11.268 0 0 1-4.131.777c-.75 0-1.482-.072-2.19-.212 1.84-1.57 3.23-3.71 3.796-6.153.11-.474.189-.963.234-1.46a15.782 15.782 0 0 1-.027-2.253v-.005a16.064 16.064 0 0 1 4.713-10.48 16.06 16.06 0 0 1 11.706-4.692C53.36 16.49 60.377 23.55 60.5 32.18z" fill="#57555C"/><path d="M38.052 25.941c-1.133.16-4.997.941-7.151 4.312-.289.452-.55 1.058-.827 1.7-.49 1.142-1.034 2.409-1.967 3.249.11-.474.19-.963.234-1.459a15.835 15.835 0 0 1-.027-2.254v-.005a16.55 16.55 0 0 1 .293-2.278c.058-.104.119-.205.182-.304 2.73-4.273 7.514-5.245 8.914-5.443a1.254 1.254 0 0 1 .349 2.482z" fill="#3C3B41"/><path d="M59.64 73.19l-3.032-.903v22.082h9.582c.68 0 1.233-.553 1.233-1.233v-9.507c0-4.818-3.165-9.063-7.782-10.439z" fill="#007AFF"/><path d="M59.64 73.19l-2.057-.614-.974-.29v4.915a10.892 10.892 0 0 1 6.063 9.764v7.404h3.518a1.236 1.236 0 0 0 1.232-1.233v-9.508A10.891 10.891 0 0 0 59.64 73.19z" fill="#0070EB"/><path d="M36.255 72.72l-1.581.47a10.893 10.893 0 0 0-7.784 10.44v9.506c0 .68.553 1.232 1.235 1.232h8.13V72.72z" fill="#007DFF"/><path d="M36.255 81.257h20.353v13.112H36.255V81.257z" fill="#F2F2F2"/><circle cx="45" cy="45" r="44.5" stroke="#F2F2F2"/></g></svg>
